actions/symbolic/insert-link-symbolic.svg

<?xml version="1.0" encoding="UTF-8" standalone="no"?>
<svg
   height="16"
   width="16"
   version="1.1"
   id="svg6"
   xmlns="http://www.w3.org/2000/svg"
   xmlns:svg="http://www.w3.org/2000/svg"
   xmlns:rdf="http://www.w3.org/1999/02/22-rdf-syntax-ns#"
   xmlns:cc="http://creativecommons.org/ns#"
   xmlns:dc="http://purl.org/dc/elements/1.1/">
  <metadata
     id="metadata12">
    <rdf:RDF>
      <cc:Work
         rdf:about="">
        <dc:format>image/svg+xml</dc:format>
        <dc:type
           rdf:resource="http://purl.org/dc/dcmitype/StillImage" />
      </cc:Work>
    </rdf:RDF>
  </metadata>
  <defs
     id="defs10" />
  <path
     style="opacity:1;fill:#555761;fill-opacity:1;stroke-width:0.99999994;stroke-linecap:round;stroke-linejoin:bevel"
     d="m 0.752155,10.6513 c -0.979342,0.979343 -0.979342,2.556191 0,3.535533 l 1.060661,1.06066 c 0.979343,0.979343 2.556191,0.979343 3.535534,0 L 8,12.595843 c 0.7931,-0.7931 0.932011,-1.973294 0.440561,-2.9154342 L 7.67683,10.444139 c 0.132792,0.499282 0.0091,1.051536 -0.383937,1.444598 l -2.65165,2.65165 c -0.587606,0.587605 -1.533715,0.587605 -2.121321,0 l -1.06066,-1.06066 c -0.587605,-0.587606 -0.587605,-1.533715 0,-2.12132 L 4.110913,8.706756 C 4.503974,8.3136944 5.056229,8.1900267 5.55551,8.3228189 L 6.31924,7.5590884 C 5.3771,7.0676384 4.196906,7.206549 3.403806,7.9996492 Z M 8,3.4034552 C 7.2069,4.1965553 7.067989,5.3767495 7.559439,6.3188896 L 8.32317,5.5551591 C 8.190378,5.0558778 8.31407,4.5036235 8.707107,4.1105619 l 2.65165,-2.6516504 c 0.587606,-0.58760569 1.533715,-0.58760569 2.121321,0 l 1.06066,1.0606602 c 0.587605,0.5876057 0.587605,1.5337146 0,2.1213203 L 11.889087,7.2925424 C 11.496026,7.685604 10.943771,7.8092716 10.44449,7.6764795 L 9.68076,8.44021 c 0.94214,0.4914499 2.122334,0.3525394 2.915434,-0.4405608 l 2.651651,-2.6516504 c 0.979342,-0.9793429 0.979342,-2.556191 0,-3.5355339 L 14.187184,0.75180481 c -0.979343,-0.9793429 -2.556191,-0.9793429 -3.535534,0 z M 5.171573,10.12097 c -0.195869,0.195868 -0.195869,0.511238 0,0.707106 0.195868,0.195869 0.511238,0.195869 0.707107,0 l 4.949747,-4.9497471 c 0.195869,-0.1958686 0.195869,-0.5112382 0,-0.7071068 -0.195868,-0.1958686 -0.511238,-0.1958686 -0.707107,0 z"
     id="rect67" />
</svg>

<svg
        xmlns='http://www.w3.org/2000/svg'
        xmlns:svg='http://www.w3.org/2000/svg'
        id='svg6'
        width='16'
        height='16'>
  <path
          id='rect67'
          opacity='1'
          fill='url(#gpa:foreground) #555761'
          fill-opacity='1'
          fill-rule='nonzero'
          stroke-width='1'
          stroke-linecap='round'
          stroke-linejoin='bevel'
          d='M 0.752155 10.6513 C -0.227187 11.6306, -0.227187 13.2075, 0.752155 14.1868 L 1.81282 15.2475 C 2.79216 16.2268, 4.36901 16.2268, 5.34835 15.2475 L 8 12.5958 C 8.7931 11.8027, 8.93201 10.6225, 8.44056 9.68041 L 7.67683 10.4441 C 7.80962 10.9434, 7.68593 11.4957, 7.29289 11.8887 L 4.64124 14.5404 C 4.05364 15.128, 3.10753 15.128, 2.51992 14.5404 L 1.45926 13.4797 C 0.871657 12.8921, 0.871657 11.946, 1.45926 11.3584 L 4.11091 8.70676 C 4.50397 8.31369, 5.05623 8.19003, 5.55551 8.32282 L 6.31924 7.55909 C 5.3771 7.06764, 4.19691 7.20655, 3.40381 7.99965 Z M 8 3.40346 C 7.2069 4.19656, 7.06799 5.37675, 7.55944 6.31889 L 8.32317 5.55516 C 8.19038 5.05588, 8.31407 4.50362, 8.70711 4.11056 L 11.3588 1.45891 C 11.9464 0.871306, 12.8925 0.871306, 13.4801 1.45891 L 14.5407 2.51957 C 15.1283 3.10718, 15.1283 4.05329, 14.5407 4.64089 L 11.8891 7.29254 C 11.496 7.6856, 10.9438 7.80927, 10.4445 7.67648 L 9.68076 8.44021 C 10.6229 8.93166, 11.8031 8.79275, 12.5962 7.99965 L 15.2478 5.348 C 16.2272 4.36866, 16.2272 2.79181, 15.2478 1.81246 L 14.1872 0.751805 C 13.2078 -0.227538, 11.631 -0.227538, 10.6517 0.751805 Z M 5.17157 10.121 C 4.9757 10.3168, 4.9757 10.6322, 5.17157 10.8281 C 5.36744 11.0239, 5.68281 11.0239, 5.87868 10.8281 L 10.8284 5.87833 C 11.0243 5.68246, 11.0243 5.36709, 10.8284 5.17122 C 10.6326 4.97535, 10.3172 4.97535, 10.1213 5.17122 Z'
          class="foreground">
  </path>
</svg>
